resources/haticons/SVG/looks_6.svg

<!-- Generated by IcoMoon.io -->
<svg version="1.1" xmlns="http://www.w3.org/2000/svg" width="24" height="24" viewBox="0 0 24 24">
<title>looks_6</title>
<path d="M15 9v-2.016h-3.984q-0.844 0-1.43 0.586t-0.586 1.43v6q0 0.844 0.586 1.43t1.43 0.586h1.969q0.844 0 1.43-0.586t0.586-1.43v-2.016q0-0.844-0.586-1.406t-1.43-0.563h-1.969v-2.016h3.984zM18.984 3q0.797 0 1.406 0.609t0.609 1.406v13.969q0 0.797-0.609 1.406t-1.406 0.609h-13.969q-0.797 0-1.406-0.609t-0.609-1.406v-13.969q0-0.797 0.609-1.406t1.406-0.609h13.969zM11.016 15v-2.016h1.969v2.016h-1.969z"></path>
</svg>

<svg xmlns="http://www.w3.org/2000/svg" width="24" height="24"><path d="M15 9V6.984h-3.984q-.844 0-1.43.586T9 9v6q0 .844.586 1.43t1.43.586h1.969q.844 0 1.43-.586t.586-1.43v-2.016q0-.844-.586-1.406t-1.43-.563h-1.969V8.999H15zm3.984-6q.797 0 1.406.609t.609 1.406v13.969q0 .797-.609 1.406t-1.406.609H5.015q-.797 0-1.406-.609T3 18.984V5.015q0-.797.609-1.406T5.015 3h13.969zm-7.968 12v-2.016h1.969V15h-1.969z"/></svg>
